build/img/review.svg

<svg width="31" height="21" viewBox="0 0 31 21" fill="none" xmlns="http://www.w3.org/2000/svg">
<path d="M5.44023 21C11.1192 19.4002 16.6248 12.9464 14.7452 5.80886C13.7187 1.95296 10.3727 -0.385186 6.62668 0.0523629C3.09399 0.462565 0.227854 3.5801 0.0145598 7.20355C-0.212065 11.0458 2.22749 14.4094 5.89348 15.2435C6.69333 15.4213 7.53318 15.4076 8.47967 15.4896C8.39969 17.7868 7.17325 19.4823 5.44023 21Z" fill="#878183"/>
<path d="M21.464 20.9453C27.2762 19.2772 31.3021 13.6164 30.9822 7.68212C30.7689 3.7852 28.0361 0.585625 24.4767 0.0797097C20.9574 -0.426206 17.5313 1.72052 16.3449 5.17988C14.5586 10.3894 18.4912 15.7631 23.8768 15.4486C24.0235 15.4349 24.1835 15.4486 24.4367 15.4486C24.2368 17.7457 23.1303 19.4959 21.464 20.9453Z" fill="#878183"/>
</svg>

<svg width="31" height="21" fill="none" xmlns="http://www.w3.org/2000/svg"><path d="M5.44 21c5.68-1.6 11.185-8.054 9.305-15.191C13.72 1.953 10.373-.385 6.627.052 3.094.462.227 3.58.015 7.204c-.227 3.842 2.212 7.205 5.878 8.04.8.177 1.64.164 2.587.246-.08 2.297-1.307 3.992-3.04 5.51zm16.024-.055c5.812-1.668 9.838-7.329 9.518-13.263C30.77 3.785 28.036.586 24.477.08c-3.52-.506-6.946 1.64-8.132 5.1-1.786 5.21 2.146 10.583 7.532 10.269.146-.014.306 0 .56 0-.2 2.297-1.307 4.047-2.973 5.496z" fill="#878183"/></svg>
